!!!OTL: Gongchandang Enqing Bihaishen
!!!ARE: Asia, China,ÿNingxia Guyuan
!! I, 157
!!!SCT: C1822
!!!YEM: Copyright 1995, estate of Helmut Schaffrath.
**kern
*ICvox
*Ivox
!! Mixed meters:  2/4; 3/4
*M3/4
*k[b-e-]
*B-:
{8gg
8ccc
8dd
8cc
=1
8cc
8ff
4ff
=2
4gg
8bb-
8ccc
=3
2.ccc
=4
*M2/4
4fff}
{8fff
16ccc
16bb-
=5
8gg
8bb-
8gg
8ff
=6
8gg
8ccc
8ccc
8fff
=7
[2fff
=8
4fff]
8fff
8r}
=9
{8cc
8ff
4ff
=10
8gg
16ccc
16bb-
8.ccc
16bb-
=11
*M3/4
8ccc
8fff
4fff
8fff
16ccc
16bb-
=12
8ccc
8fff
16ccc
16bb-
16ccc
16bb-
4gg}
=13
*M2/4
{16ff
16gg
16bb-
16ccc
8ccc
8fff
=14
16ccc
16bb-
16ccc
16bb-
16gg
16bb-
16gg
16ff
=15
4ff
[4ff
=16
2ff]}
==
!!!AGN: Shange, Huar
!! Hui
!!!ONB: ESAC (Essen Associative Code) Database: SENGANSU
!!!AMT: irregular
!!!AIN: vox
!!!EED: Helmut Schaffrath
!!!EEV: 1.0
*-
!!!ONB: Tied note syntax fixed by Craig Sapp, 2004/05/03/
